X: 4
T: Kitty's Wedding
R: hornpipe
M: 4/4
L: 1/8
K: Dmaj
|: f>e |d2 (3Bcd A2 F>A | B>AF>E D>FE>D | B>dA>B D>FB>F | A>F (3DEF E2 (3gfe |
(3ded B>d A>DF>A | B>AF>E D2 (3FED | B>dA>B D>FB>F | A>FE>F D2 :|
|: f>g |a>fe>d b2 (3fed | A>d (3fed e>dB>d | D>FA>d F>Ad>e | f>dg>f (3efe (3efg |
a2 f>d b>af>d | A2 (3fed e>d (3Bcd | D>FA>d F>Ad>f | e>AB>A d2 :|


Tune 869	Setting 869

